src/baseIcons/icon-arrow-right.svg

<?xml version="1.0" encoding="UTF-8"?>
<svg  viewBox="0 0 24 24" version="1.1" xmlns="http://www.w3.org/2000/svg" xmlns:xlink="http://www.w3.org/1999/xlink">
    <title>Icons/Basic icons/arrow-right</title>
    <defs>
        <path d="M23.923,11.6175 C23.872,11.4945 23.799,11.3845 23.707,11.2925 L17.707,5.2925 C17.317,4.9025 16.684,4.9025 16.293,5.2925 C15.902,5.6835 15.902,6.3165 16.293,6.7065 L20.586,10.9995 L1,10.9995 C0.448,10.9995 0,11.4475 0,11.9995 C0,12.5525 0.448,12.9995 1,12.9995 L20.586,12.9995 L16.293,17.2925 C15.902,17.6835 15.902,18.3165 16.293,18.7065 C16.488,18.9025 16.744,18.9995 17,18.9995 C17.256,18.9995 17.512,18.9025 17.707,18.7065 L23.707,12.7075 C23.799,12.6155 23.872,12.5045 23.923,12.3825 C24.024,12.1375 24.024,11.8625 23.923,11.6175"  id="path-1"></path>
    </defs>
    <g  id="Icons/Basic-icons/arrow-right" stroke="none" stroke-width="1" fill="none" fill-rule="evenodd">
        <mask id="mask-2" fill="white">
            <use xlink:href="#path-1"></use>
        </mask>
        <use  id="Shape" fill="#292929" xlink:href="#path-1"></use>
    </g>
</svg>

<svg xmlns="http://www.w3.org/2000/svg" xmlns:xlink="http://www.w3.org/1999/xlink" viewBox="0 0 24 24"><path d="M23.923 11.6175c-.051-.123-.124-.233-.216-.325l-6-6c-.39-.39-1.023-.39-1.414 0-.391.391-.391 1.024 0 1.414l4.293 4.293H1c-.552 0-1 .448-1 1 0 .553.448 1 1 1h19.586l-4.293 4.293c-.391.391-.391 1.024 0 1.414.195.196.451.293.707.293.256 0 .512-.097.707-.293l6-5.999c.092-.092.165-.203.216-.325.101-.245.101-.52 0-.765" id="a"/></svg>
